!!!COM:	la Rue, Pierre de
!!!CDT:	~1452///-1518/11/20
!!!OPR:	Missa Ista est speciosa
!!!ONM:	4
!!!OTL:	Sanctus
!!!AGN:	Mass; Sanctus
!!!SCT:	Rue1018d
!!!SCA:	Rue1018d
!!!voices-OPR:	5
!!!voices:	5
**kern	**kern	**kern	**kern	**kern
*staff5	*staff4	*staff3	*staff2	*staff1
*Ivox	*Ivox	*Ivox	*Ivox	*Ivox
*I"Bassus2	*I"Bassus1	*I"Tenor	*I"Contra	*I"Discantus
*I'B2	*I'B1	*I'T	*I'C	*I'D
*>[A,B,C,D,C]	*>[A,B,C,D,C]	*>[A,B,C,D,C]	*>[A,B,C,D,C]	*>[A,B,C,D,C]
*>A	*>A	*>A	*>A	*>A
*clefF4	*clefF4	*clefGv2	*clefGv2	*clefG2
*k[]	*k[]	*k[]	*k[]	*k[]
*M3/1	*M3/1	*M3/1	*M3/1	*M3/1
*met(O)	*met(O)	*met(O)	*met(O)	*met(O)
!!section: Sanctus
!!!OMD: Sanctus
=1-	=1-	=1-	=1-	=1-
0.r	0.r	0.r	1e	0e
.	.	.	2e\	.
.	.	.	1c	.
.	.	.	.	1g
.	.	.	4B\	.
.	.	.	4A/	.
=2	=2	=2	=2	=2
0.r	0.r	0.r	1B	1g
.	.	.	1A	1.a
.	.	.	2r	.
.	.	.	[2d\	[2f/
=3	=3	=3	=3	=3
0.r	0.r	0.r	2d\]	2f/]
.	.	.	4c\	4e/
.	.	.	4B\	4d/
.	.	.	1c	1e
.	.	.	1d	1d
=4	=4	=4	=4	=4
0.r	0.r	0.r	2d\	2r
.	.	.	1B	1g
.	.	.	4A/	4f/
.	.	.	4G/	4e/
.	.	.	1A	1f
=5	=5	=5	=5	=5
0.r	0.r	0.r	2G/	2g/
.	.	.	1c	1e
.	.	.	4B\	4d/
.	.	.	4A/	4c/
.	.	.	4B\	4d/
.	.	.	4c\	4e/
.	.	.	4d\	4f/
.	.	.	4e\	4g/
=6	=6	=6	=6	=6
0.r	0.r	0.r	2f\	2a/
.	.	.	1e	1g
.	.	.	4d\	1cc
.	.	.	4c\	.
.	.	.	1d	.
.	.	.	.	2b\
=7	=7	=7	=7	=7
0.r	0.r	0.r	0c	2.cc\
.	.	.	.	4b\
.	.	.	.	2a/
.	.	.	.	1g
.	.	.	2r	.
.	.	.	2c\	4f/
.	.	.	.	4e/
=8	=8	=8	=8	=8
0.r	0.r	0.r	2d\	1f
.	.	.	2B\	.
.	.	.	2c\	0e
.	.	.	1A	.
.	.	.	4G/	.
.	.	.	4F/	.
=9	=9	=9	=9	=9
0.r	0.r	0.r	2E/	2r
.	.	.	2G/	2g/
.	.	.	1F	2a/
.	.	.	.	2f/
.	.	.	1E	2g/
.	.	.	.	[2e/
=10	=10	=10	=10	=10
0EE	0E	[0.B	0G	2e/]
.	.	.	.	4d/
.	.	.	.	4c/
.	.	.	.	2B/
.	.	.	.	2.e/
1EE	1E	.	2G/	.
.	.	.	.	4f/
.	.	.	4E/	2g/
.	.	.	4F/	.
=11	=11	=11	=11	=11
0EE	0E	0.B]	4G/	4e/
.	.	.	4A/	4f/
.	.	.	2B\	4g/
.	.	.	.	4a/
.	.	.	2E/	2b\
.	.	.	2e\	2.a/
1EE	1E	.	1e	.
.	.	.	.	4g#i/
.	.	.	.	2g#i/
=12	=12	=12	=12	=12
1AA	2F\	0A	1c	0a
.	2.E\	.	.	.
4AA/	.	.	1r	.
4BB/	4D\	.	.	.
4C/	4E\	.	.	.
4D\	4F\	.	.	.
2GG/	2G\	1B	1r	1r
2G\	[2E\	.	.	.
=13	=13	=13	=13	=13
2.E\	4E\]	[0.B	0.r	0.r
.	4F\	.	.	.
.	2G\	.	.	.
4F\	.	.	.	.
2G\	2E\	.	.	.
2E\	2.G\	.	.	.
2G\	.	.	.	.
.	4A\	.	.	.
[2GG/	2B\	.	.	.
=14	=14	=14	=14	=14
4GG/]	4E\	1B]	0.r	0.r
4AA/	4F\	.	.	.
4BB/	4G\	.	.	.
4C/	4A\	.	.	.
4D\	2B\	1r	.	.
4C/	.	.	.	.
4BB/	1A	.	.	.
4AA/	.	.	.	.
1BB	.	1r	.	.
.	2G#i\	.	.	.
=15	=15	=15	=15	=15
0AA	0A	0c	0.r	0.r
2r	2r	1A	.	.
[2D\	[2F\	.	.	.
=16	=16	=16	=16	=16
2D\]	2F\]	1B	0.r	0.r
2BB/	2D\	.	.	.
1C	2E\	2G/	.	.
.	1C	2.A/	.	.
2AA/	.	.	.	.
.	.	4G/	.	.
[2BB/	[2D\	4F/	.	.
.	.	4E/	.	.
=17	=17	=17	=17	=17
2BB/]	2D\]	1G	0.r	0.r
2GG/	2BB/	.	.	.
2.AA/	2C/	2E/	.	.
.	1AA	1F	.	.
4GG/	.	.	.	.
4FF/	.	.	.	.
4EE/	.	.	.	.
[2GG/	[2BB/	2D/	.	.
=18	=18	=18	=18	=18
2GG/]	2BB/]	2E/	0.r	0.r
2AA/	2.C/	2.F/	.	.
1EE	.	.	.	.
.	4BB/	4E/	.	.
.	1BB	1E	.	.
1FF	.	.	.	.
.	2AA/	2D/	.	.
=19	=19	=19	=19	=19
0.EE	0.BB	0.E	1.e	1.g
.	.	.	2e\	2g/
.	.	.	1e	1g
=20	=20	=20	=20	=20
0.r	0.r	0.r	1c	2.e/
.	.	.	.	4f/
.	.	.	2B\	2g/
.	.	.	2A/	1a
.	.	.	[1c	.
.	.	.	.	4g/
.	.	.	.	4f/
=21	=21	=21	=21	=21
0.r	0.r	0.r	2c\]	4e/
.	.	.	.	4d/
.	.	.	4d\	1f
.	.	.	4c\	.
.	.	.	4B\	.
.	.	.	4A/	.
.	.	.	1c	1e
.	.	.	4B\	4d/
.	.	.	4A/	4c/
=22	=22	=22	=22	=22
1.EE	1.BB	0.E	0G	0B
2EE/	2BB/	.	.	.
1EE	1BB	.	1r	1r
=23	=23	=23	=23	=23
0GG	0BB	0D	1.d	1.b
.	.	.	2d\	2b\
1BB	1D	1G	1d	1b
=24	=24	=24	=24	=24
0AA	1E	0A	0c	1cc
.	2E\	.	.	2cc\
.	1C	.	.	1a
1FF	.	[1c	2A/	.
.	2F\	.	[2c\	2a/
=25	=25	=25	=25	=25
1C	2.E\	1c]	4c\]	2.g/
.	.	.	4B\	.
.	.	.	2.G/	.
.	4F\	.	.	4f/
1GG	1G	0B	.	2e/
.	.	.	4A/	.
.	.	.	4B\	1d
.	.	.	4c\	.
4GG/	2.G\	.	1d	.
4AA/	.	.	.	.
4BB/	.	.	.	2g/
4C/	4F\	.	.	.
=26	=26	=26	=26	=26
2D\	2D\	0A	1r	2f/
2AA/	2E\	.	.	2.e/
1D	1F	.	1r	.
.	.	.	.	4d/
.	.	.	.	2d/
1AA	[1E	1A	2r	1e
.	.	.	2c\	.
=27	=27	=27	=27	=27
0.r	1E]	0B	1e	2r
.	.	.	.	2e/
.	2r	.	2d\	1.g
.	2E\	.	1e	.
.	2G\	1r	.	.
.	[2G\	.	4d\	4f/
.	.	.	4c\	4e/
=28	=28	=28	=28	=28
0.r	4G\]	0.r	4B\	4d/
.	4F\	.	4c\	4e/
.	4D\	.	4d\	4f/
.	4E\	.	4c\	4e/
.	4F\	.	2A/	4d/
.	4E\	.	.	4c/
.	4D\	.	1G	1c
.	4C/	.	.	.
.	1D	.	.	.
.	.	.	2F/	2B/
=29	=29	=29	=29	=29
1.C	2C/	0.e	0G	0c
.	2.E\	.	.	.
.	4F\	.	.	.
2C/	2G\	.	.	.
1C	2E\	.	2r	1r
.	[2G\	.	4E/	.
.	.	.	4F/	.
=30	=30	=30	=30	=30
0GG	2G\]	0.d	4G/	0g
.	.	.	4A/	.
.	4F\	.	4B\	.
.	4E\	.	4c\	.
.	1D	.	2d\	.
.	.	.	2.c\	.
1GG	1D	.	.	1g
.	.	.	4B\	.
.	.	.	2B\	.
=31	=31	=31	=31	=31
2.C/	1E	0c	2c\	2.e/
.	.	.	1e	.
4D\	.	.	.	4f/
2E\	1r	.	.	2g/
2F\	.	.	2c\	1a
2D\	1r	1B	2d\	.
2E\	.	.	2B\	2g/
=32	=32	=32	=32	=32
1AA	1E	0A	1c	2a/
.	.	.	.	2e/
2.D\	2D\	.	1d	2.f/
.	1D	.	.	.
4C/	.	.	.	4d/
1AA	.	2r	1r	2e/
.	2C/	2A/	.	2f/
=33	=33	=33	=33	=33
1GG	1D	2.B\	1.d	2.g/
.	.	4G/	.	4e/
2D\	1D	2A/	.	2f/
2BB/	.	2B\	2G/	2g/
2AA/	2C/	2c\	2c\	2a/
2GG/	2G\	[2d\	2B\	2b\
=34	=34	=34	=34	=34
1AA	1E	2d\]	1A	1cc
.	.	2c\	.	.
1GG	2r	2d\	1B	2b\
.	2G\	2B\	.	1g
1r	1A	1c	1r	.
.	.	.	.	2f#i/
=35	=35	=35	=35	=35
2GG/	1G	2B\	2r	0.g
1C	.	1e	2.G/	.
.	2C/	.	.	.
.	.	.	4A/	.
2BB/	2D\	2d\	2B\	.
1C	1E	1c	1G	.
=36	=36	=36	=36	=36
0.GGl	0.Dl	0.Bl	0.Gl	0.gl
!!LO:LB:i:g=z
=37||	=37||	=37||	=37||	=37||
*>B	*>B	*>B	*>B	*>B
*clefF4	*clefF4	*clefGv2	*clefGv2	*clefG2
*k[]	*k[]	*k[]	*k[]	*k[]
*M2/1	*M2/1	*M2/1	*M2/1	*M2/1
*met(C2)	*met(C2)	*met(C2)	*met(C2)	*met(C2)
!!section: Pleni sunt celi
!!!OMD: Pleni sunt celi
0r	0r	0r	2.G/	0r
.	.	.	4A/	.
.	.	.	2B\	.
.	.	.	[2c\	.
=38.	=38.	=38.	=38.	=38.
0r	0r	0r	2c\]	2.e/
.	.	.	4B\	.
.	.	.	4A/	4f/
.	.	.	2B\	2g/
.	.	.	[2c\	[2a/
=39	=39	=39	=39	=39
0r	0r	0r	2c\]	2a/]
.	.	.	4B\	4g/
.	.	.	4A/	4f/
.	.	.	2B\	2g/
.	.	.	2c\	[2a/
=40.	=40.	=40.	=40.	=40.
0r	0r	0r	1F	2a/]
.	.	.	.	4g/
.	.	.	.	4f/
.	.	.	2r	2g/
.	.	.	[2F/	2a/
=41	=41	=41	=41	=41
0r	0r	0r	2F/]	1d
.	.	.	2G/	.
.	.	.	2A/	2r
.	.	.	[2B\	[2d/
=42.	=42.	=42.	=42.	=42.
0r	0r	0r	2B\]	2d/]
.	.	.	4A/	2e/
.	.	.	4G/	.
.	.	.	2A/	2f/
.	.	.	[2B\	[2g/
=43	=43	=43	=43	=43
0r	0r	0r	2B\]	2g/]
.	.	.	4A/	4f/
.	.	.	4G/	4e/
.	.	.	2A/	2f/
.	.	.	2B\	[2g/
=44.	=44.	=44.	=44.	=44.
0r	0r	0r	1E	2g/]
.	.	.	.	4f/
.	.	.	.	4e/
.	.	.	2r	2f/
.	.	.	2E/	2g/
=45	=45	=45	=45	=45
0r	0r	0r	2.E/	1c
.	.	.	4F/	.
.	.	.	2G/	2r
.	.	.	[2A/	2c/
=46.	=46.	=46.	=46.	=46.
0r	0r	0r	2A/]	2.c/
.	.	.	4G/	.
.	.	.	4F/	4d/
.	.	.	2G/	2e/
.	.	.	2A/	[2f/
=47	=47	=47	=47	=47
0r	0r	0r	1D	2f/]
.	.	.	.	4e/
.	.	.	.	4d/
.	.	.	2r	2e/
.	.	.	[2d\	2f/
=48.	=48.	=48.	=48.	=48.
0r	0r	0r	2d\]	2d/
.	.	.	4c\	1a
.	.	.	4B\	.
.	.	.	2c\	.
.	.	.	2d\	4g/
.	.	.	.	4f/
=49	=49	=49	=49	=49
0r	0r	0r	2B\	2g/
.	.	.	1A	2a/
.	.	.	.	2f/
.	.	.	2G/	[2e/
=50.	=50.	=50.	=50.	=50.
0r	0r	0r	2A/	4e/]
.	.	.	.	4d/
.	.	.	2F/	2d/
.	.	.	2.E/	2e/
.	.	.	.	[2g/
.	.	.	4F/	.
=51	=51	=51	=51	=51
0r	0r	0r	4G/	4g/]
.	.	.	4A/	4f/
.	.	.	4B\	4d/
.	.	.	4c\	4e/
.	.	.	2d\	2f/
.	.	.	[2c\	[2e/
=52.	=52.	=52.	=52.	=52.
0r	0r	0r	4c\]	2e/]
.	.	.	4B\	.
.	.	.	1A	4d/
.	.	.	.	4c/
.	.	.	.	1B
.	.	.	2G#i/	.
=53	=53	=53	=53	=53
0r	0r	0r	[0A	0A
=54.	=54.	=54.	=54.	=54.
0r	0r	0r	0A]	1r
.	.	.	.	1e
=55	=55	=55	=55	=55
0r	0r	0r	1r	1f
.	.	.	1B	1g
=56.	=56.	=56.	=56.	=56.
0r	0r	0r	1c	1.a
.	.	.	1d	.
.	.	.	.	4g/
.	.	.	.	4f/
=57	=57	=57	=57	=57
0r	0r	0r	1.e	4g/
.	.	.	.	4f/
.	.	.	.	4e/
.	.	.	.	4d/
.	.	.	.	2c/
.	.	.	4d\	2cc\
.	.	.	4c\	.
=58.	=58.	=58.	=58.	=58.
0r	0r	0r	4d\	2b\
.	.	.	4c\	.
.	.	.	4B\	2.a/
.	.	.	4A/	.
.	.	.	1B	.
.	.	.	.	4g#i/
.	.	.	.	2g#i/
=59	=59	=59	=59	=59
0r	0r	0r	1A	2a/
.	.	.	.	2e/
.	.	.	2r	2f/
.	.	.	2B\	[2g/
=60.	=60.	=60.	=60.	=60.
0r	0r	0r	2c\	4g/]
.	.	.	.	4e/
.	.	.	2.d\	2f/
.	.	.	.	2d/
.	.	.	4B\	.
.	.	.	2c\	2e/
=61	=61	=61	=61	=61
0r	0r	0r	2A/	2r
.	.	.	2E/	2e/
.	.	.	2r	2f/
.	.	.	2B\	[2g/
=62.	=62.	=62.	=62.	=62.
0r	0r	0r	2c\	4g/]
.	.	.	.	4e/
.	.	.	2.d\	2f/
.	.	.	.	2d/
.	.	.	4B\	.
.	.	.	2c\	[2e/
=63	=63	=63	=63	=63
0r	0r	0r	2A/	2e/]
.	.	.	2.c\	2.A/
.	.	.	4B\	4B/
.	.	.	[2A/	4c/
.	.	.	.	4d/
=64.	=64.	=64.	=64.	=64.
0r	0r	0r	2A/]	4e/
.	.	.	.	4f/
.	.	.	4G/	1g
.	.	.	4F/	.
.	.	.	4E/	.
.	.	.	4F/	.
.	.	.	4G/	[2d/
.	.	.	4A/	.
=65	=65	=65	=65	=65
0r	0r	0r	4B\	4d/]
.	.	.	4c\	4e/
.	.	.	1d	4f/
.	.	.	.	4g/
.	.	.	.	4a/
.	.	.	.	4b\
.	.	.	4c\	[2cc\
.	.	.	4B\	.
=66.	=66.	=66.	=66.	=66.
0r	0r	0r	1A	2cc\]
.	.	.	.	4b\
.	.	.	.	4a/
.	.	.	2r	2g/
.	.	.	2A/	[2a/
=67	=67	=67	=67	=67
0r	0r	0r	2B\	2a/]
.	.	.	1c	2g/
.	.	.	.	2.a/
.	.	.	2A/	.
.	.	.	.	4f/
=68.	=68.	=68.	=68.	=68.
0r	0r	0r	2B\	2g/
.	.	.	2.c\	2.a/
.	.	.	4B\	4g/
.	.	.	4A/	4f/
.	.	.	4G/	4e/
=69	=69	=69	=69	=69
0r	0r	0r	4A/	2f/
.	.	.	4G/	.
.	.	.	4F/	2.e/
.	.	.	4E/	.
.	.	.	1F	.
.	.	.	.	4d/
.	.	.	.	2d/
=70.	=70.	=70.	=70.	=70.
0r	0r	0r	0El	0el
!!LO:LB:i:g=z
=71||	=71||	=71||	=71||	=71||
*>C	*>C	*>C	*>C	*>C
*clefF4	*clefF4	*clefGv2	*clefGv2	*clefG2
*k[]	*k[]	*k[]	*k[]	*k[]
*M2/1	*M2/1	*M2/1	*M2/1	*M2/1
*met(C2)	*met(C2)	*met(C2)	*met(C2)	*met(C2)
!!section: Osanna
!!!OMD: Osanna
0E	[0G	[0B	[0e	[0g
=72.	=72.	=72.	=72.	=72.
0E	0G]	0B]	0e]	0g]
=73	=73	=73	=73	=73
[0C	[0G	[0c	0e	0g
=74.	=74.	=74.	=74.	=74.
0C]	0G]	0c]	1.e	1.cc
.	.	.	4d\	4b\
.	.	.	4c\	4a/
=75	=75	=75	=75	=75
[0GG	1.G	[0d	2B\	[0b
.	.	.	2.d\	.
.	.	.	4c\	.
.	4F\	.	4B\	.
.	4E\	.	4A/	.
=76.	=76.	=76.	=76.	=76.
0GG]	1D	0d]	0G	1b]
.	1D	.	.	4b\
.	.	.	.	4a/
.	.	.	.	4g/
.	.	.	.	4f/
=77	=77	=77	=77	=77
1C	2.E\	[0c	2r	1e
.	.	.	2G/	.
.	4F\	.	.	.
2.C/	2G\	.	1G	2.e/
.	2C/	.	.	.
4D\	.	.	.	4f/
=78.	=78.	=78.	=78.	=78.
2E\	0C	0c]	2E/	2g/
2AA/	.	.	2F/	2.a/
1AA	.	.	2E/	.
.	.	.	.	4b\
.	.	.	2A/	[2cc\
=79	=79	=79	=79	=79
0GG	0G	0d	1D	2cc\]
.	.	.	.	4b\
.	.	.	.	4a/
.	.	.	2r	1b
.	.	.	2B\	.
=80.	=80.	=80.	=80.	=80.
1AA	[0E	1c	2.c\	2a/
.	.	.	.	1a
.	.	.	4d\	.
1EE	.	1B	1e	.
.	.	.	.	2g#i/
=81	=81	=81	=81	=81
0AA	0E]	1A	2e\	0a
.	.	.	1c	.
.	.	2r	.	.
.	.	2A/	4B\	.
.	.	.	4A/	.
=82.	=82.	=82.	=82.	=82.
2r	0r	1E	1G	0r
1C	.	.	.	.
.	.	[1G	4G/	.
.	.	.	4A/	.
4BB/	.	.	4B\	.
4AA/	.	.	4c\	.
=83	=83	=83	=83	=83
1GG	0r	2G/]	1.d	0r
.	.	4F/	.	.
.	.	4E/	.	.
4GG/	.	1D	.	.
4AA/	.	.	.	.
4BB/	.	.	4c\	.
4C/	.	.	4B\	.
=84.	=84.	=84.	=84.	=84.
1D	0r	4D/	1A	0r
.	.	4E/	.	.
.	.	4F/	.	.
.	.	4G/	.	.
2.AA/	.	[1A	4A/	.
.	.	.	4B\	.
.	.	.	4c\	.
4BB/	.	.	4d\	.
=85	=85	=85	=85	=85
2C/	0r	1A]	2e\	0r
2D\	.	.	1d	.
1E	.	1G	.	.
.	.	.	2c#i\	.
=86.	=86.	=86.	=86.	=86.
[0D	1r	[0A	[0d	0a
.	[1F	.	.	.
=87	=87	=87	=87	=87
0D]	1F]	0A]	0d]	1a
.	1F	.	.	1a
=88.	=88.	=88.	=88.	=88.
0AA	1E	0A	0r	1.cc
.	1E	.	.	.
.	.	.	.	2b\
=89	=89	=89	=89	=89
0r	2.F\	1A	0r	2a/
.	.	.	.	4g/
.	4E\	.	.	4f/
.	2C/	1A	.	2e/
.	[2D\	.	.	[2f/
=90.	=90.	=90.	=90.	=90.
0r	2D\]	2G/	1r	2f/]
.	2C/	2E/	.	2.e/
.	1D	1F	1A	.
.	.	.	.	4d/
.	.	.	.	2d/
=91	=91	=91	=91	=91
[0AA	[0A	[0E	1.c	1e
.	.	.	.	[1a
.	.	.	4B\	.
.	.	.	4A/	.
=92.	=92.	=92.	=92.	=92.
0AA]	0A]	0E]	2c\	0a]
.	.	.	2d\	.
.	.	.	[1e	.
=93	=93	=93	=93	=93
1C	1r	0r	1e]	1g
1D	[1A	.	1d	1f
=94.	=94.	=94.	=94.	=94.
0AA	1A]	0r	1.c	1e
.	1A	.	.	1r
.	.	.	4B\	.
.	.	.	4A/	.
=95	=95	=95	=95	=95
0r	2G\	0r	2B\	2r
.	4F\	.	1c	1.a
.	4E\	.	.	.
.	1F	.	.	.
.	.	.	[2d\	.
=96.	=96.	=96.	=96.	=96.
0r	2E\	0r	4d\]	2g/
.	.	.	4c\	.
.	2C/	.	1c	2e/
.	1D	.	.	1f
.	.	.	2B\	.
=97	=97	=97	=97	=97
2r	0C	0E	0c	2e/
1.AA	.	.	.	1.cc
=98.	=98.	=98.	=98.	=98.
2GG/	0r	1E	0r	2b\
2EE/	.	.	.	2g/
1FF	.	1D	.	1a
=99	=99	=99	=99	=99
0EE	1r	0E	2r	1g
.	.	.	1e	.
.	[1G	.	.	1r
.	.	.	2e\	.
=100.	=100.	=100.	=100.	=100.
0r	1G]	0G	2d\	2r
.	.	.	2B\	1.g
.	[1C	.	2c\	.
.	.	.	[2e\	.
=101	=101	=101	=101	=101
0r	2C/]	[0A	4e\]	2f/
.	.	.	4d\	.
.	2D\	.	1d	2d/
.	1AA	.	.	1e
.	.	.	2c\	.
=102.	=102.	=102.	=102.	=102.
0r	0D	0A]	2d\	1d
.	.	.	1d	.
.	.	.	.	[1a
.	.	.	2d\	.
=103	=103	=103	=103	=103
1r	1r	0E	2c\	1a]
.	.	.	2A/	.
1EE	1G	.	1B	1g
=104.	=104.	=104.	=104.	=104.
2.FF/	2.F\	1r	0A	1a
4GG/	4E\	.	.	.
4AA/	4F\	[1c	.	1r
4BB/	4G\	.	.	.
[2C/	[2A\	.	.	.
=105	=105	=105	=105	=105
4C/]	4A\]	1c]	0r	1r
4BB/	4G\	.	.	.
4AA/	1G	.	.	.
4GG/	.	.	.	.
1AA	.	1c	.	1a
.	2F#i\	.	.	.
=106.	=106.	=106.	=106.	=106.
1GG	1G	2.B\	0d	2b\
.	.	.	.	2g/
.	.	4G/	.	.
2r	1D	2A/	.	2f/
2GG/	.	2B\	.	[2g/
=107	=107	=107	=107	=107
2.C/	1r	2G/	1c	4g/]
.	.	.	.	4f/
.	.	2A/	.	2e/
4BB/	.	.	.	.
2GG/	1D	2.B\	2d\	2.d/
2BB/	.	.	2G/	.
.	.	4G/	.	4e/
=108.	=108.	=108.	=108.	=108.
2AA/	2C/	2A/	2c\	2f/
2GG/	2D\	2B\	2B\	2.g/
1C	2E\	2G/	2c\	.
.	.	.	.	4f/
.	2C/	[2c\	[2G/	[2e/
=109	=109	=109	=109	=109
0GG	1D	2c\]	2G/]	2e/]
.	.	4B\	4F/	4d/
.	.	4A/	4E/	4c/
.	1D	1B	2D/	1d
.	.	.	[2G/	.
=110.	=110.	=110.	=110.	=110.
1C	[0C	0c	2G/]	1e
.	.	.	2E/	.
[1FF	.	.	2F/	[1a
.	.	.	2C/	.
=111	=111	=111	=111	=111
1FF]	0C]	0c	2.F/	0a]
.	.	.	4G/	.
1FF	.	.	1A	.
=112.	=112.	=112.	=112.	=112.
1GG	2r	1B	2B\	1g
.	2D\	.	2.d\	.
1D	2.F\	1A	.	1f
.	.	.	4c\	.
.	.	.	2A/	.
.	4E\	.	.	.
=113	=113	=113	=113	=113
1GG	2D\	0G	1B	0g
.	2.G\	.	.	.
[1C	.	.	[1c	.
.	4F\	.	.	.
.	4E\	.	.	.
.	4D\	.	.	.
=114.	=114.	=114.	=114.	=114.
1C]	0C	1G	1c]	1e
1FF	.	1A	1c	1f
=115	=115	=115	=115	=115
2.GG/	0r	1.G	0B	0d
4AA/	.	.	.	.
2BB/	.	.	.	.
2C/	.	4F/	.	.
.	.	4E/	.	.
=116.	=116.	=116.	=116.	=116.
0D	1r	1F	0A	0d
.	1D	1F	.	.
=117	=117	=117	=117	=117
[0AA	1C	[0E	2r	[0el
.	.	.	1e	.
.	[1E	.	.	.
.	.	.	2d\	.
=118.	=118.	=118.	=118.	=118.
0AA]	2E\]	0E]	2c\	0e_
.	2D\	.	2B\	.
.	1C	.	1A	.
=119	=119	=119	=119	=119
0EEl	0BBl	0El	0Bl	0e]
!!LO:LB:i:g=z
!!LO:TX:rj:i:Y=40:t=fine
=120||	=120||	=120||	=120||	=120||
*>D	*>D	*>D	*>D	*>D
*clefF4	*clefF4	*clefGv2	*clefGv2	*clefG2
*k[]	*k[]	*k[]	*k[]	*k[]
*M2/1	*M2/1	*M2/1	*M2/1	*M2/1
*met(C2)	*met(C2)	*met(C2)	*met(C2)	*met(C2)
!!section: Benedictus
!!!OMD: Benedictus
0r	0E	0r	1r	0r
.	.	.	[1B	.
=121	=121	=121	=121	=121
0r	1G	0r	1B]	0r
.	1F	.	1d	.
=122	=122	=122	=122	=122
0r	2.E\	0r	1e	0r
.	4F\	.	.	.
.	4G\	.	2B\	.
.	4A\	.	.	.
.	[2B\	.	[2d\	.
=123	=123	=123	=123	=123
0r	4B\]	0r	4d\]	0r
.	4A\	.	4c\	.
.	1A	.	4B\	.
.	.	.	4A/	.
.	.	.	1B	.
.	2G#i\	.	.	.
=124	=124	=124	=124	=124
0AA	1A	0e	0A	0r
.	2r	.	.	.
.	[2E\	.	.	.
=125	=125	=125	=125	=125
1E	2E\]	1e	0r	0r
.	2F\	.	.	.
1E	1G	1e	.	.
=126	=126	=126	=126	=126
1.F	1.A	0c	0r	0r
2E\	2G\	.	.	.
=127	=127	=127	=127	=127
2D\	2F\	0d	0r	0r
2C/	2E\	.	.	.
2.BB/	2.D\	.	.	.
4C/	4E\	.	.	.
=128	=128	=128	=128	=128
2D\	2F\	1B	0r	0r
1E	1G	.	.	.
.	.	1c	.	.
[2AA/	[2E\	.	.	.
=129	=129	=129	=129	=129
2AA/]	2E\]	1A	0r	0r
1D	2F\	.	.	.
.	2D\	2B\	.	.
2C/	2E\	2c\	.	.
=130	=130	=130	=130	=130
4D\	2F\	2B\	0r	0r
4C/	.	.	.	.
4BB/	2.E\	2.A/	.	.
4AA/	.	.	.	.
1BB	.	.	.	.
.	4D\	4G#i/	.	.
.	2D\	2G#i/	.	.
=131	=131	=131	=131	=131
[0AA	[0E	[0A	1r	0r
.	.	.	[1e	.
=132	=132	=132	=132	=132
0AA]	0E]	0A]	1e]	0r
.	.	.	1c	.
=133	=133	=133	=133	=133
2r	0r	0r	2.B\	0r
2E\	.	.	.	.
.	.	.	4c\	.
2F\	.	.	2d\	.
2E\	.	.	[2e\	.
=134	=134	=134	=134	=134
2C/	0r	0r	2e\]	0r
2D\	.	.	2d\	.
1E	.	.	2B\	.
.	.	.	2c\	.
=135	=135	=135	=135	=135
2D\	1r	0r	2.d\	0r
1F	.	.	.	.
.	.	.	4c\	.
.	2r	.	2A/	.
2E\	[2G\	.	[2G/	.
=136	=136	=136	=136	=136
2.C/	2G\]	1r	2G/]	0r
.	2E\	.	2.c\	.
4E\	.	.	.	.
1D	1F	1d	.	.
.	.	.	4B\	.
.	.	.	2B\	.
=137	=137	=137	=137	=137
0C	1G	1e	0c	0r
.	2r	[1e	.	.
.	2G\	.	.	.
=138	=138	=138	=138	=138
0r	2.c\	2e\]	0r	0r
.	.	2d\	.	.
.	4B\	.	.	.
.	2A\	2c\	.	.
.	2G\	2B\	.	.
=139	=139	=139	=139	=139
0r	2F\	2A/	0r	0r
.	2.E\	2G/	.	.
.	.	1F	.	.
.	4D\	.	.	.
.	2D\	.	.	.
=140	=140	=140	=140	=140
1.C	0E	2.E/	1.c	0r
.	.	4F/	.	.
.	.	2G/	.	.
2AA/	.	[2A/	2c\	.
=141	=141	=141	=141	=141
1E	1r	2A/]	1B	0r
.	.	2G/	.	.
1AA	1E	2A/	1A	.
.	.	[2c\	.	.
=142	=142	=142	=142	=142
0GG	1G	2c\]	0d	0r
.	.	4B\	.	.
.	.	4A/	.	.
.	2G\	[1B	.	.
.	[2G\	.	.	.
=143	=143	=143	=143	=143
2.GG/	2G\]	1B]	1d	0r
.	4F\	.	.	.
4AA/	4E\	.	.	.
2BB/	2D\	1r	2B\	.
2AA/	2C/	.	[2c\	.
=144	=144	=144	=144	=144
1C	2E\	0r	2c\]	0r
.	2F\	.	4B\	.
.	.	.	4A/	.
1GG	[1G	.	2B\	.
.	.	.	[2E/	.
=145	=145	=145	=145	=145
0GG	1G]	0r	2E/]	0r
.	.	.	2.B\	.
.	[1G	.	.	.
.	.	.	4c\	.
.	.	.	2d\	.
=146	=146	=146	=146	=146
0r	2G\]	0r	2e\	0r
.	2F\	.	2.d\	.
.	1E	.	.	.
.	.	.	4c#i\	.
.	.	.	2c#i\	.
=147	=147	=147	=147	=147
1r	0D	1r	0d	0r
1GG	.	1B	.	.
=148	=148	=148	=148	=148
1D	0r	2A/	0r	0r
.	.	1B	.	.
1BB	.	.	.	.
.	.	[2G/	.	.
=149	=149	=149	=149	=149
1.E	0r	2G/]	0r	0r
.	.	2.c\	.	.
.	.	4B\	.	.
2D\	.	4A/	.	.
.	.	4G/	.	.
=150	=150	=150	=150	=150
2C/	0r	2A/	0r	0r
2BB/	.	1G	.	.
1AA	.	.	.	.
.	.	2F#i/	.	.
=151	=151	=151	=151	=151
[0GG	1r	[0G	0d	0r
.	1D	.	.	.
=152	=152	=152	=152	=152
0GG]	1D	0G]	1d	0r
.	1D	.	1d	.
=153	=153	=153	=153	=153
0r	1.G	0r	2.B\	0r
.	.	.	4c\	.
.	.	.	2d\	.
.	4F\	.	[2e\	.
.	4E\	.	.	.
=154	=154	=154	=154	=154
0r	2F\	0r	2e\]	0r
.	2G\	.	2d\	.
.	1C	.	[1e	.
=155	=155	=155	=155	=155
0r	2r	0r	1e]	0r
.	2G\	.	.	.
.	2A\	.	2c\	.
.	[2B\	.	[2d\	.
=156	=156	=156	=156	=156
0r	4B\]	0r	2d\]	0r
.	4A\	.	.	.
.	1G	.	4c\	.
.	.	.	4B\	.
.	.	.	1A	.
.	2F#i\	.	.	.
=157	=157	=157	=157	=157
0GG	2G\	0d	2G/	0r
.	2D\	.	2.B\	.
.	2G\	.	.	.
.	.	.	4A/	.
.	2B\	.	[2G/	.
=158	=158	=158	=158	=158
1D	1A	1d	2G/]	0r
.	.	.	2F#i/	.
1GG	2G\	1d	1G	.
.	[2B\	.	.	.
=159	=159	=159	=159	=159
2.GG/	4B\]	2.B\	0r	0r
.	4A\	.	.	.
.	1G	.	.	.
4AA/	.	4c\	.	.
2BB/	.	2d\	.	.
[2C/	2E\	[2e\	.	.
=160	=160	=160	=160	=160
2C/]	1F	2e\]	1r	0r
2BB/	.	2d\	.	.
2.C/	1E	1e	2r	.
.	.	.	2G/	.
4BB/	.	.	.	.
=161	=161	=161	=161	=161
2AA/	0r	2c\	2A/	0r
2.GG/	.	2.d\	2.B\	.
4AA/	.	4c\	4A/	.
4BB/	.	2B\	[2G/	.
4C/	.	.	.	.
=162	=162	=162	=162	=162
1D	0r	1A	2G/]	0r
.	.	.	2F#i/	.
2r	.	2G/	1G	.
2GG/	.	2E/	.	.
=163	=163	=163	=163	=163
2AA/	0r	2F/	2r	0r
2GG/	.	1G	2B\	.
2EE/	.	.	2c\	.
2FF/	.	4F/	[2d\	.
.	.	4E/	.	.
=164	=164	=164	=164	=164
2.GG/	0r	2D/	4d\]	0r
.	.	.	4c\	.
.	.	2.E/	2B\	.
4AA/	.	.	.	.
1FF	.	.	2.A/	.
.	.	4D/	.	.
.	.	2D/	.	.
.	.	.	4B\	.
=165	=165	=165	=165	=165
[0EE	1G	[0E	2c\	0r
.	.	.	2B\	.
.	2G\	.	4G/	.
.	.	.	4A/	.
.	[2E\	.	4B\	.
.	.	.	4c\	.
=166	=166	=166	=166	=166
0EE]	2E\]	0E]	2B\	0r
.	4D\	.	2.A/	.
.	4C/	.	.	.
.	1BB	.	.	.
.	.	.	4G#i/	.
.	.	.	2G#i/	.
=167	=167	=167	=167	=167
2r	2AA/	0r	1A	0r
1AA	2.C/	.	.	.
.	.	.	1e	.
.	4D\	.	.	.
[2C/	4E\	.	.	.
.	4F\	.	.	.
=168	=168	=168	=168	=168
2C/]	2G\	0r	2e\	0r
2C/	2.A\	.	1c	.
1AA	.	.	.	.
.	4G\	.	.	.
.	4F\	.	2c\	.
.	4E\	.	.	.
=169	=169	=169	=169	=169
2.BB/	2D\	0r	2d\	0r
.	2.G\	.	2.B\	.
4GG/	.	.	.	.
1GG	.	.	.	.
.	4F\	.	4A/	.
.	4E\	.	2B\	.
.	4D\	.	.	.
=170	=170	=170	=170	=170
2r	1C	1e	2c\	0r
1AA	.	.	1A	.
.	2r	2e\	.	.
2AA/	[2E\	[2c\	[2A/	.
=171	=171	=171	=171	=171
1C	2E\]	2c\]	4A/]	0r
.	.	.	4B\	.
.	1G	2c\	4c\	.
.	.	.	4A/	.
2.GG/	.	2d\	2B\	.
.	[2D\	[2B\	[2G/	.
4AA/	.	.	.	.
=172	=172	=172	=172	=172
2BB/	2D\]	4B\]	2G/]	0r
.	.	4A/	.	.
2GG/	1E	2B\	2.B\	.
1AA	.	2c\	.	.
.	.	.	4A/	.
.	[2E\	2A/	[2A/	.
=173	=173	=173	=173	=173
1EE	2E\]	1B	2A/]	0r
.	1E	.	2G#i/	.
2AA/	.	[1A	1A	.
[2D\	[2F\	.	.	.
=174	=174	=174	=174	=174
4D\]	4F\]	1A]	0d	0r
4C/	4E\	.	.	.
4BB/	4D\	.	.	.
4AA/	4C/	.	.	.
1BB	1D	1G	.	.
=175	=175	=175	=175	=175
[0AAl	2E\	[0Al	[0cl	0r
.	2.A\	.	.	.
.	4G\	.	.	.
.	4F\	.	.	.
.	4E\	.	.	.
=176	=176	=176	=176	=176
0AA]	1F	0A]	0c]	0r
.	1El	.	.	.
!!LO:TX:i:Y=40:rj:t=Osanna ut supra
=||	=||	=||	=||	=||
*-	*-	*-	*-	*-
!!!RDF**kern: l=long note in original notation
!!!RDF**kern: i=editorial accidental
!!!ENC:	Chris Gage 05-16-2013
!!!END:	2013/08/03/
!!!EED:	Jesse Rodin
!!!EEV:	2013/08/05/
!!!ONB:	Translated from MusicXML and edited on 2013/08/05/ by Craig Sapp
!!muse2ps: T^@{OPR}^u^@{ONM}{. }@{OTL}^C^@{COM}^i2I150v85,85,85,85,130Q8c90
